X:12041
T:Lucy Farr's Barndance
T:Eight Step Polka
R:Hornpipe
C:Trad. Lucy Farr 1911-2003
O:Ireland; Galway
Z:Paul Hardy's Session Tunebook 2022 (see www.paulhardy.net). Creative Commons cc by-nc-sa licenced.
M:4/4
L:1/8
Q:1/4=150
K:G
(3DEF|"G".G2G2 .G2G2|GABG "C"E2 "D"D2|"G"B4 BAGA|BcdB "D"A3 A|
"G"BcdB .G2 G2|GABG "C"E2 "D"D2|"G"DEGA BddB|"D7"A2 .G2 "G"G2:|
|:zA|"G"BcdB .G2 G2|GABG "C"E2 "D"D2|"G"DEGA BddB|"D"B2 .A2 A2 zA|
"G"BcdB .G2 G2|GABG "C"E2 "D"D2|"G"DEGA BddB|"D7"A2 .G2 "G"G2:|

